X:41
T:Royal Salute THO4.041, The
M:C
L:1/8
Z:vmp. Peter Dunk 2010/11.from a transcription by Fynn Titford-Mock 2007
B:Thompson's Compleat Collection of 200 Favourite Country Dances Volume IV.
Q:1/4=140
K:A
e2|(dc)(BA) (cB)(AG)|A2E2E2A2|F2F2F2e2|c4 B2 e2|\
(dc)(BA) (cB)(AG)|A2E2E2a2|(ag)(fe) gfe^d|e6:|
